X: 20
T: Qiyue li huilai kanyikan wo
L: 1/16
M: 2/4
K: A
B2 B e E2 D E [I:setbarnb 1]| 
F2 e2 f2 e c | 
B2> F2 E2 E c | 
B8 | 
B2 B e E2 D E | 
F2 e2 f2 e c | 
B2> F2 E2 D F | 
E8 |]

@@@ Tune index: 8894
